lib/brands/icons/postman.svg

<svg xmlns="http://www.w3.org/2000/svg" fill="none" aria-hidden="true" viewBox="0 0 48 48"><g id="postman-Icon"><g id="Group"><path id="Vector" fill="#FF6C37" d="M41.8528 26.2856C43.1126 16.4234 36.1478 7.40699 26.3036 6.14722C16.4594 4.88744 7.40699 11.8522 6.14722 21.6964C4.88744 31.5406 11.8522 40.575 21.6964 41.8528C31.5586 43.1126 40.575 36.1478 41.8528 26.2856Z"/><g id="Group_2"><path id="Vector_2" fill="white" d="M30.4965 17.5573L22.9019 25.1519L20.7603 23.0103C28.2289 15.5416 28.9668 16.1895 30.4965 17.5573Z"/><path id="Vector_3" fill="#FF6C37" d="M22.9021 25.3319C22.8481 25.3319 22.8121 25.3139 22.7761 25.2779L20.6165 23.1362C20.5445 23.0643 20.5445 22.9563 20.6165 22.8843C28.2111 15.2897 29.003 16.0095 30.6047 17.4493C30.6407 17.4853 30.6587 17.5213 30.6587 17.5752C30.6587 17.6292 30.6407 17.6652 30.6047 17.7012L23.0101 25.2779C22.9921 25.3139 22.9381 25.3319 22.9021 25.3319ZM21.0124 23.0103L22.9021 24.8999L30.2268 17.5752C28.895 16.3875 27.9952 16.0275 21.0124 23.0103Z"/><path id="Vector_4" fill="white" d="M25.0799 27.3295L23.0103 25.2599L30.6049 17.6653C32.6385 19.7169 29.5971 23.0463 25.0799 27.3295Z"/><path id="Vector_5" fill="#FF6C37" d="M25.0797 27.5095C25.0258 27.5095 24.9898 27.4915 24.9538 27.4555L22.8841 25.3859C22.8481 25.3499 22.8481 25.3139 22.8481 25.2599C22.8481 25.2059 22.8661 25.1699 22.9021 25.1339L30.4968 17.5393C30.5688 17.4673 30.6767 17.4673 30.7487 17.5393C31.2166 17.9712 31.4686 18.5831 31.4506 19.213C31.4146 21.2106 29.147 23.7482 25.2237 27.4555C25.1697 27.4915 25.1157 27.5095 25.0797 27.5095ZM23.2621 25.2599C24.4139 26.4297 24.8998 26.8976 25.0797 27.0776C28.1032 24.1981 31.0367 21.2466 31.0547 19.213C31.0727 18.7451 30.8927 18.2771 30.5867 17.9172L23.2621 25.2599Z"/><path id="Vector_6" fill="white" d="M20.7967 23.0643L22.3264 24.594C22.3624 24.63 22.3624 24.666 22.3264 24.702C22.3084 24.72 22.3084 24.72 22.2904 24.72L19.123 25.4039C18.961 25.4219 18.817 25.3139 18.781 25.1519C18.7631 25.0619 18.799 24.972 18.853 24.918L20.6887 23.0823C20.7247 23.0463 20.7787 23.0283 20.7967 23.0643Z"/><path id="Vector_7" fill="#FF6C37" d="M19.069 25.5838C18.799 25.5838 18.6011 25.3679 18.6011 25.0979C18.6011 24.9719 18.6551 24.846 18.745 24.756L20.5807 22.9203C20.6887 22.8303 20.8327 22.8303 20.9407 22.9203L22.4704 24.45C22.5784 24.54 22.5784 24.702 22.4704 24.81C22.4344 24.846 22.3984 24.864 22.3444 24.8819L19.177 25.5658C19.141 25.5658 19.105 25.5838 19.069 25.5838ZM20.7427 23.2622L18.979 25.0259C18.943 25.0619 18.925 25.1159 18.961 25.1699C18.979 25.2239 19.033 25.2419 19.087 25.2239L22.0565 24.576L20.7427 23.2622Z"/><path id="Vector_8" fill="white" d="M34.5102 13.346C33.3584 12.2303 31.5047 12.2662 30.3889 13.436C29.2731 14.6058 29.3091 16.4415 30.4789 17.5573C31.4327 18.4751 32.8725 18.6371 34.0063 17.9532L31.9546 15.9016L34.5102 13.346Z"/><path id="Vector_9" fill="#FF6C37" d="M32.4944 18.5471C30.7847 18.5471 29.3989 17.1613 29.3989 15.4516C29.3989 13.742 30.7847 12.3562 32.4944 12.3562C33.2862 12.3562 34.0601 12.6621 34.636 13.22C34.672 13.256 34.69 13.292 34.69 13.346C34.69 13.4 34.672 13.436 34.636 13.472L32.2064 15.9016L34.1141 17.8092C34.1861 17.8812 34.1861 17.9892 34.1141 18.0612C34.0961 18.0792 34.0961 18.0792 34.0781 18.0972C33.6102 18.3851 33.0523 18.5471 32.4944 18.5471ZM32.4944 12.7341C30.9826 12.7341 29.7589 13.9579 29.7769 15.4696C29.7769 16.9814 31.0006 18.2051 32.5124 18.1872C32.9263 18.1872 33.3402 18.0972 33.7181 17.8992L31.8285 16.0275C31.7925 15.9915 31.7745 15.9556 31.7745 15.9016C31.7745 15.8476 31.7925 15.8116 31.8285 15.7756L34.2401 13.364C33.7541 12.9501 33.1423 12.7341 32.4944 12.7341Z"/><path id="Vector_10" fill="white" d="M34.5641 13.4L34.5281 13.364L31.9546 15.9015L33.9882 17.9352C34.1862 17.8092 34.3842 17.6652 34.5461 17.5032C35.6979 16.3694 35.6979 14.5338 34.5641 13.4Z"/><path id="Vector_11" fill="#FF6C37" d="M34.006 18.1331C33.952 18.1331 33.916 18.1151 33.88 18.0791L31.8284 16.0275C31.7924 15.9915 31.7744 15.9555 31.7744 15.9015C31.7744 15.8475 31.7924 15.8115 31.8284 15.7755L34.3839 13.22C34.4559 13.148 34.5639 13.148 34.6359 13.22L34.6899 13.256C35.8957 14.4618 35.8957 16.4054 34.7079 17.6292C34.5279 17.8092 34.33 17.9711 34.114 18.0971C34.06 18.1151 34.024 18.1331 34.006 18.1331ZM32.2063 15.9015L34.024 17.7192C34.168 17.6292 34.312 17.5032 34.4199 17.3953C35.4458 16.3694 35.4997 14.6957 34.5099 13.6159L32.2063 15.9015Z"/><path id="Vector_12" fill="white" d="M30.8026 17.8812C30.3707 17.4493 29.6688 17.4493 29.2369 17.8812L22.4521 24.666L23.5859 25.7998L30.7666 19.5009C31.2346 19.105 31.2706 18.4031 30.8746 17.9352C30.8386 17.9172 30.8206 17.8992 30.8026 17.8812Z"/><path id="Vector_13" fill="#FF6C37" d="M23.5682 25.9797C23.5142 25.9797 23.4782 25.9617 23.4422 25.9257L22.3084 24.792C22.2364 24.72 22.2364 24.612 22.3084 24.54L29.0932 17.7552C29.5971 17.2513 30.4069 17.2513 30.9108 17.7552C31.4147 18.2591 31.4147 19.069 30.9108 19.5729C30.8928 19.5909 30.8748 19.6089 30.8568 19.6269L23.6761 25.9257C23.6581 25.9617 23.6221 25.9797 23.5682 25.9797ZM22.7043 24.666L23.5862 25.5478L30.6409 19.3569C31.0368 19.033 31.0728 18.4391 30.7489 18.0432C30.4249 17.6472 29.831 17.6112 29.4351 17.9352C29.4171 17.9532 29.3991 17.9712 29.3631 17.9892L22.7043 24.666Z"/><path id="Vector_14" fill="white" d="M17.251 32.3866C17.179 32.4226 17.143 32.4946 17.161 32.5665L17.467 33.8623C17.5389 34.0423 17.431 34.2582 17.233 34.3122C17.089 34.3662 16.927 34.3122 16.8371 34.2043L14.8574 32.2426L21.3183 25.7818L23.5499 25.8178L25.0616 27.3295C24.7016 27.6354 22.524 29.7411 17.251 32.3866Z"/><path id="Vector_15" fill="#FF6C37" d="M17.1069 34.4922C16.963 34.4922 16.819 34.4382 16.729 34.3302L14.7674 32.3686C14.7314 32.3326 14.7134 32.2966 14.7134 32.2426C14.7134 32.1886 14.7314 32.1526 14.7674 32.1166L21.2282 25.6558C21.2642 25.6198 21.3182 25.6018 21.3542 25.6018L23.5858 25.6378C23.6398 25.6378 23.6758 25.6558 23.7118 25.6918L25.2235 27.2035C25.2595 27.2395 25.2775 27.2935 25.2775 27.3475C25.2775 27.4015 25.2595 27.4375 25.2055 27.4735L25.0795 27.5814C23.1719 29.2551 20.5803 30.9288 17.3589 32.5306L17.6648 33.8083C17.7188 34.0423 17.6109 34.2942 17.3949 34.4202C17.2869 34.4742 17.1969 34.4922 17.1069 34.4922ZM15.1273 32.2426L16.981 34.0783C17.035 34.1683 17.1429 34.2043 17.2329 34.1503C17.3229 34.0963 17.3589 33.9883 17.3049 33.8983L16.999 32.6025C16.963 32.4406 17.035 32.2966 17.1789 32.2246C20.3644 30.6229 22.9379 28.9672 24.8276 27.3295L23.4958 25.9977L21.4262 25.9617L15.1273 32.2426Z"/><path id="Vector_16" fill="white" d="M13.3278 33.7903L14.8756 32.2426L17.1792 34.5462L13.5078 34.2942C13.3458 34.2762 13.2379 34.1323 13.2559 33.9703C13.2559 33.8983 13.2739 33.8263 13.3278 33.7903Z"/><path id="Vector_17" fill="#FF6C37" d="M17.1791 34.7082L13.4898 34.4562C13.2198 34.4382 13.0399 34.2043 13.0579 33.9343C13.0759 33.8264 13.1119 33.7184 13.2019 33.6464L14.7496 32.0987C14.8216 32.0267 14.9295 32.0267 15.0015 32.0987L17.3051 34.4023C17.3591 34.4562 17.3771 34.5282 17.3411 34.6002C17.3051 34.6722 17.2511 34.7082 17.1791 34.7082ZM14.8756 32.4946L13.4538 33.9163C13.3998 33.9523 13.3998 34.0423 13.4538 34.0783C13.4718 34.0963 13.4898 34.1143 13.5258 34.1143L16.7112 34.3303L14.8756 32.4946Z"/><path id="Vector_18" fill="#FF6C37" d="M20.6883 26.6096C20.5803 26.6096 20.5083 26.5196 20.5083 26.4297C20.5083 26.3757 20.5263 26.3397 20.5623 26.3037L22.308 24.558C22.38 24.486 22.4879 24.486 22.5599 24.558L23.6937 25.6918C23.7477 25.7458 23.7657 25.7998 23.7477 25.8718C23.7297 25.9257 23.6757 25.9797 23.6037 25.9977L20.7243 26.6096C20.7063 26.6096 20.6883 26.6096 20.6883 26.6096ZM22.434 24.9359L21.2462 26.1237L23.1898 25.7098L22.434 24.9359Z"/><path id="Vector_19" fill="white" d="M23.5498 25.8178L21.5702 26.2497C21.4262 26.2857 21.2822 26.1957 21.2462 26.0517C21.2282 25.9617 21.2462 25.8718 21.3182 25.7998L22.416 24.702L23.5498 25.8178Z"/><path id="Vector_20" fill="#FF6C37" d="M21.5344 26.4297C21.2824 26.4297 21.0845 26.2317 21.0845 25.9797C21.0845 25.8538 21.1385 25.7458 21.2104 25.6558L22.3083 24.558C22.3802 24.486 22.4882 24.486 22.5602 24.558L23.694 25.6918C23.748 25.7458 23.766 25.7998 23.748 25.8718C23.73 25.9257 23.676 25.9797 23.604 25.9977L21.6244 26.4297C21.5884 26.4297 21.5524 26.4297 21.5344 26.4297ZM22.4342 24.9359L21.4624 25.9077C21.4264 25.9437 21.4264 25.9797 21.4444 26.0157C21.4624 26.0517 21.4984 26.0697 21.5524 26.0697L23.2081 25.7098L22.4342 24.9359Z"/><path id="Vector_21" fill="#FF6C37" d="M34.5822 15.1277C34.5462 15.0197 34.4202 14.9657 34.3122 15.0017C34.2042 15.0377 34.1503 15.1637 34.1862 15.2717C34.1862 15.2897 34.2042 15.3077 34.2042 15.3256C34.3122 15.5416 34.2762 15.8116 34.1323 16.0095C34.0603 16.0995 34.0783 16.2255 34.1503 16.2975C34.2402 16.3695 34.3662 16.3515 34.4382 16.2615C34.7081 15.9195 34.7621 15.4876 34.5822 15.1277Z"/></g></g></g></svg>

<svg xmlns="http://www.w3.org/2000/svg" fill="none" aria-hidden="true" viewBox="0 0 48 48"><path fill="#FF6C37" d="M41.853 26.286c1.26-9.863-5.705-18.879-15.55-20.139-9.844-1.26-18.896 5.705-20.156 15.55-1.26 9.844 5.705 18.878 15.55 20.156 9.862 1.26 18.878-5.705 20.156-15.567Z"/><path fill="#fff" d="m30.497 17.557-7.595 7.595-2.142-2.142c7.469-7.468 8.207-6.82 9.736-5.453Z"/><path fill="#FF6C37" d="M22.902 25.332a.163.163 0 0 1-.126-.054l-2.16-2.142a.174.174 0 0 1 0-.252c7.595-7.594 8.387-6.875 9.989-5.435a.163.163 0 0 1 .054.126c0 .054-.018.09-.054.126l-7.595 7.577c-.018.036-.072.054-.108.054Zm-1.89-2.322 1.89 1.89 7.325-7.325c-1.332-1.188-2.232-1.547-9.215 5.435Z"/><path fill="#fff" d="m25.08 27.33-2.07-2.07 7.595-7.595c2.034 2.052-1.008 5.381-5.525 9.665Z"/><path fill="#FF6C37" d="M25.08 27.51a.163.163 0 0 1-.126-.055l-2.07-2.07c-.036-.035-.036-.071-.036-.125 0-.054.018-.09.054-.126l7.595-7.595a.174.174 0 0 1 .252 0c.468.432.72 1.044.702 1.674-.036 1.998-2.304 4.535-6.227 8.242a.287.287 0 0 1-.144.055Zm-1.818-2.25c1.152 1.17 1.638 1.638 1.818 1.818 3.023-2.88 5.957-5.831 5.975-7.865a1.917 1.917 0 0 0-.468-1.296l-7.325 7.343Z"/><path fill="#fff" d="m20.797 23.064 1.53 1.53c.035.036.035.072 0 .108-.019.018-.019.018-.037.018l-3.167.684a.315.315 0 0 1-.342-.252.266.266 0 0 1 .072-.234l1.836-1.836c.036-.036.09-.054.108-.018Z"/><path fill="#FF6C37" d="M19.069 25.584a.469.469 0 0 1-.468-.486c0-.126.054-.252.144-.342l1.836-1.836a.274.274 0 0 1 .36 0l1.53 1.53c.107.09.107.252 0 .36a.289.289 0 0 1-.127.072l-3.167.684c-.036 0-.072.018-.108.018Zm1.674-2.322-1.764 1.764c-.036.036-.054.09-.018.144.018.054.072.072.126.054l2.97-.648-1.314-1.314Z"/><path fill="#fff" d="M34.51 13.346a2.907 2.907 0 0 0-4.121.09 2.906 2.906 0 0 0 .09 4.121 2.908 2.908 0 0 0 3.527.396l-2.051-2.051 2.555-2.556Z"/><path fill="#FF6C37" d="M32.494 18.547a3.095 3.095 0 1 1 2.142-5.327.163.163 0 0 1 .054.126c0 .054-.018.09-.054.126l-2.43 2.43 1.908 1.907a.174.174 0 0 1 0 .252l-.036.036a3.053 3.053 0 0 1-1.584.45Zm0-5.813a2.708 2.708 0 0 0-2.717 2.736 2.708 2.708 0 0 0 2.735 2.717c.414 0 .828-.09 1.206-.288l-1.89-1.872a.163.163 0 0 1-.053-.125c0-.054.018-.09.053-.126l2.412-2.412a2.667 2.667 0 0 0-1.746-.63Z"/><path fill="#fff" d="m34.564 13.4-.036-.036-2.573 2.537 2.033 2.034c.198-.126.396-.27.558-.432a2.884 2.884 0 0 0 .018-4.103Z"/><path fill="#FF6C37" d="M34.006 18.133a.163.163 0 0 1-.126-.054l-2.052-2.052a.163.163 0 0 1-.054-.126c0-.053.018-.09.054-.126l2.556-2.555a.174.174 0 0 1 .252 0l.054.036a3.112 3.112 0 0 1 .018 4.373c-.18.18-.378.342-.594.468-.054.018-.09.036-.108.036Zm-1.8-2.231 1.818 1.817c.144-.09.288-.216.396-.324a2.74 2.74 0 0 0 .09-3.78l-2.304 2.287Z"/><path fill="#fff" d="M30.803 17.881a1.108 1.108 0 0 0-1.566 0l-6.785 6.785 1.134 1.134 7.18-6.3c.469-.395.505-1.097.109-1.565a.248.248 0 0 1-.072-.054Z"/><path fill="#FF6C37" d="M23.568 25.98a.163.163 0 0 1-.126-.054l-1.134-1.134a.174.174 0 0 1 0-.252l6.785-6.785a1.282 1.282 0 0 1 1.818 0 1.282 1.282 0 0 1 0 1.818l-.054.054-7.18 6.299c-.019.036-.055.054-.109.054Zm-.864-1.314.882.882 7.055-6.191c.396-.324.432-.918.108-1.314s-.918-.432-1.314-.108a.248.248 0 0 1-.072.054l-6.659 6.677Z"/><path fill="#fff" d="M17.251 32.387c-.072.036-.108.108-.09.18l.306 1.295a.344.344 0 0 1-.234.45.361.361 0 0 1-.396-.108l-1.98-1.961 6.461-6.461 2.232.036 1.512 1.511c-.36.306-2.538 2.412-7.811 5.058Z"/><path fill="#FF6C37" d="M17.107 34.492a.49.49 0 0 1-.378-.162l-1.962-1.961a.163.163 0 0 1-.054-.126c0-.054.018-.09.054-.126l6.461-6.461a.194.194 0 0 1 .126-.054l2.232.036c.054 0 .09.018.126.054l1.512 1.511a.21.21 0 0 1 .053.145c0 .053-.018.09-.072.126l-.125.107c-1.908 1.674-4.5 3.348-7.721 4.95l.306 1.277a.567.567 0 0 1-.27.612.617.617 0 0 1-.288.072Zm-1.98-2.25 1.854 1.836c.054.09.162.126.252.072.09-.054.126-.162.072-.252l-.306-1.296a.328.328 0 0 1 .18-.377c3.185-1.602 5.759-3.258 7.649-4.896l-1.332-1.331-2.07-.036-6.299 6.28Z"/><path fill="#fff" d="m13.328 33.79 1.548-1.547 2.303 2.303-3.671-.252a.287.287 0 0 1-.252-.324c0-.072.018-.144.072-.18Z"/><path fill="#FF6C37" d="m17.18 34.708-3.69-.252c-.27-.018-.45-.252-.432-.522.018-.108.054-.216.144-.288L14.75 32.1a.174.174 0 0 1 .252 0l2.303 2.303c.054.054.072.126.036.198-.036.072-.09.108-.162.108Zm-2.304-2.213-1.422 1.421c-.054.036-.054.126 0 .162.018.018.036.036.072.036l3.185.216-1.835-1.835Zm5.812-5.885a.18.18 0 0 1-.18-.18c0-.054.018-.09.054-.126l1.746-1.746a.174.174 0 0 1 .252 0l1.134 1.134c.054.054.072.108.054.18a.206.206 0 0 1-.144.126l-2.88.612h-.036Zm1.746-1.674-1.188 1.188 1.944-.414-.756-.774Z"/><path fill="#fff" d="m23.55 25.818-1.98.432a.268.268 0 0 1-.252-.45l1.098-1.098 1.134 1.116Z"/><path fill="#FF6C37" d="M21.534 26.43a.446.446 0 0 1-.45-.45c0-.126.055-.234.126-.324l1.098-1.098a.174.174 0 0 1 .252 0l1.134 1.134c.054.054.072.108.054.18a.206.206 0 0 1-.144.126l-1.98.432h-.09Zm.9-1.494-.972.972c-.036.036-.036.072-.018.108.018.036.054.054.108.054l1.656-.36-.774-.774Zm12.148-9.808c-.036-.108-.162-.162-.27-.126-.108.036-.162.162-.126.27 0 .018.018.036.018.054a.672.672 0 0 1-.072.683.219.219 0 0 0 .018.288c.09.072.216.055.288-.035.27-.343.324-.774.144-1.134Z"/></svg>
